X:23
T:Lady Harriot Hope's Reel
S:Petrie's Third Collection of Strathspey Reels and Country Dances &c.
Z:Steve Wyrick <sjwyrick'at'gmail'dot'com>, 7/30/05
N:Petrie's Third Collection, page 10
L:1/8
M:C
R:Reel
K:F
A|FAcf \{d\}c2 BA|f2 (a/g/f) gGGA|FAcf \{d\}c2 BA|BGcA F/F/F F:|c|fcfg (f/g/a) gf|
ecgc acgc|fcfg (f/g/a) gf|cfeg f/f/f f2|fcfg (f/g/a) gf|(Tgfga) baga|(fdcB) A2 fd|cABG F/F/F F|]
